resources/svg/major-update-inventory.svg

<svg xmlns="http://www.w3.org/2000/svg" viewBox="0 0 20 20" fill="currentColor"><path d="m18 5.65-8-3.555-8 3.555v13.35h-2v-14c0-.396.232-.753.594-.913l9-4a.999.999 0 0 1 .812 0l9 4a1 1 0 0 1 .594.913v14h-2v-13.35z"/><path d="M9 15a.997.997 0 0 1-.707-.293l-2-2a1 1 0 0 1 1.414-1.414l1.293 1.293 3.293-3.293a1 1 0 1 1 1.414 1.415l-4 4a.999.999 0 0 1-.707.292z"/></svg>

<svg xmlns="http://www.w3.org/2000/svg" viewBox="0 0 20 20" fill="currentColor"><path d="M18 5.65l-8-3.555L2 5.65V19H0V5c0-.396.232-.753.594-.913l9-4a.999.999 0 01.812 0l9 4A1 1 0 0120 5v14h-2V5.65z" fill="#5C5F62"/><path d="M9 15a.997.997 0 01-.707-.293l-2-2a1 1 0 011.414-1.414L9 12.586l3.293-3.293a1 1 0 111.414 1.415l-4 4A.999.999 0 019 15z" fill="#5C5F62"/></svg>
